src/svg/notallowed.svg

<svg height="35" viewBox="0 0 35 35" width="35" xmlns="http://www.w3.org/2000/svg" xmlns:xlink="http://www.w3.org/1999/xlink"><linearGradient id="a" x1="50%" x2="50%" y1="0%" y2="100%"><stop offset="0" stop-color="#f0f0f0"/><stop offset="1" stop-color="#d5d5d5"/></linearGradient><g fill="none" fill-rule="evenodd"><path d="m18 30.5c-3.584 0-6.5-2.916-6.5-6.5 0-1.22.337-2.391.98-3.421l8.941 8.941c-1.03.643-2.201.98-3.421.98zm-3.393-12.037c1.023-.632 2.185-.963 3.393-.963 3.584 0 6.5 2.916 6.5 6.5 0 1.208-.331 2.37-.963 3.393zm3.393-3.963c-5.238 0-9.5 4.262-9.5 9.5s4.262 9.5 9.5 9.5 9.5-4.262 9.5-9.5-4.262-9.5-9.5-9.5z" fill="#fff"/><path d="m9 24c0 4.97 4.03 9 9 9 4.97 0 9-4.03 9-9 0-4.971-4.03-9-9-9-4.97 0-9 4.029-9 9zm4.826-5.61c1.167-.869 2.608-1.39 4.174-1.39 3.866 0 7 3.134 7 7 0 1.567-.52 3.008-1.39 4.174zm-2.826 5.61c0-1.578.529-3.029 1.409-4.199l9.79 9.79c-1.171.881-2.622 1.409-4.199 1.409-3.866 0-7-3.134-7-7z" fill="url(#a)"/><path d="m8 17.4219v-16.015l11.591 11.619h-7.041l-.151.124z" fill="#fff"/><path d="m9 3.814v11.188l2.969-2.866.16-.139h5.036z" fill="#000"/></g></svg>

<?xml version="1.0" encoding="UTF-8" standalone="no"?>
<svg width="35px" height="35px" viewBox="0 0 35 35" version="1.1" xmlns="http://www.w3.org/2000/svg" xmlns:xlink="http://www.w3.org/1999/xlink">
    <defs>
        <linearGradient x1="50%" y1="0%" x2="50%" y2="100%" id="linearGradient-notallowed">
            <stop stop-color="#F0F0F0" offset="0%"></stop>
            <stop stop-color="#D5D5D5" offset="100%"></stop>
        </linearGradient>
        <path d="M9,24 C9,28.97 13.03,33 18,33 L18,33 C22.97,33 27,28.97 27,24 L27,24 C27,19.029 22.97,15 18,15 L18,15 C13.03,15 9,19.029 9,24 L9,24 Z M13.826,18.39 C14.993,17.521 16.434,17 18,17 L18,17 C21.866,17 25,20.134 25,24 L25,24 C25,25.567 24.48,27.008 23.61,28.174 L23.61,28.174 L13.826,18.39 Z M11,24 C11,22.422 11.529,20.971 12.409,19.801 L12.409,19.801 L22.199,29.591 C21.028,30.472 19.577,31 18,31 L18,31 C14.134,31 11,27.866 11,24 L11,24 Z" id="path-2"></path>
    </defs>
    <g id="Page-1" stroke="none" stroke-width="1" fill="none" fill-rule="evenodd">
        <g id="notallowed">
            <g id="bg-copy" fill="#FFFFFF" opacity="0.00999999978">
                <rect id="bg" x="0" y="0" width="35" height="35"></rect>
            </g>
            <path d="M18,30.5 C14.416,30.5 11.5,27.584 11.5,24 C11.5,22.78 11.837,21.609 12.48,20.579 L21.421,29.52 C20.391,30.163 19.22,30.5 18,30.5 L18,30.5 Z M14.607,18.463 C15.63,17.831 16.792,17.5 18,17.5 C21.584,17.5 24.5,20.416 24.5,24 C24.5,25.208 24.169,26.37 23.537,27.393 L14.607,18.463 Z M18,14.5 C12.762,14.5 8.5,18.762 8.5,24 C8.5,29.238 12.762,33.5 18,33.5 C23.238,33.5 27.5,29.238 27.5,24 C27.5,18.762 23.238,14.5 18,14.5 L18,14.5 Z" id="notallowed-circle-border" fill="#FFFFFF"></path>
            <mask id="mask-3" fill="white">
                <use xlink:href="#path-2"></use>
            </mask>
            <use id="notallowed-circle" fill="url(#linearGradient-notallowed)" xlink:href="#path-2"></use>
            <path d="M8,17.4219 L8,1.4069 L19.591,13.0259 L12.55,13.0259 L12.399,13.1499 L8,17.4219 Z" id="point-border" fill="#FFFFFF"></path>
            <path d="M9,3.814 L9,15.002 L11.969,12.136 L12.129,11.997 L17.165,11.997 L9,3.814 Z" id="point" fill="#000000"></path>
        </g>
    </g>
</svg>
